X:2879
T:Charlie Lennon's #4
C:Charlie Lennon
R:reel
Z:id:hn-reel-338
M:C|
K:D
F2AF dFAF|DFAF GBAG|F2AF dFAF|GABG EFGE|
F2AF dFAF|DFAF GBAG|FAdf edBA|1 (3Bcd eg fdAG:|2 (3Bcd eg fdec||
|:d2fd adfd|(3Bcd ef gefe|d2fd adfd|(3Bcd eg fdec|
d2fd adfd|(3Bcd ef g2fg|afge f2ed|1 (3Bcd eg fdec:|2 (3Bcd eg fdAG||


